X:1
T:Jeff Lindqvist's Dream
K:E dor
S:Lesl Harker <lmh@RCONS.COM> irtrad-l 2001-6-13
L:1/8
M:C|
EFGA BE~E2|~B2AB AGFD|EFGA BAGA|1 BcdB AGFD:|2 Bded e2ef||
|:e2ed B2Bd|edef gbaf|e2ed B2Bc|1 dBAG FDD2:|2 dBAG FDDF||
